flaticon/household/office-chair-4.svg

<svg xmlns="http://www.w3.org/2000/svg" width="32" height="32" viewBox="0 0 24 24">
    <path d="M11 3.601562C11 3.820312 10.820312 4 10.601562 4 10.378906 4 10.199219 3.820312 10.199219 3.601562 10.199219 3.378906 10.378906 3.199219 10.601562 3.199219 10.820312 3.199219 11 3.378906 11 3.601562zM13.398438 3.601562C13.398438 3.820312 13.222656 4 13 4 12.777344 4 12.601562 3.820312 12.601562 3.601562 12.601562 3.378906 12.777344 3.199219 13 3.199219 13.222656 3.199219 13.398438 3.378906 13.398438 3.601562zM12.199219 4.800781C12.199219 5.019531 12.019531 5.199219 11.800781 5.199219 11.578125 5.199219 11.398438 5.019531 11.398438 4.800781 11.398438 4.578125 11.578125 4.398438 11.800781 4.398438 12.019531 4.398438 12.199219 4.578125 12.199219 4.800781zM12.199219 7.199219C12.199219 7.421875 12.019531 7.601562 11.800781 7.601562 11.578125 7.601562 11.398438 7.421875 11.398438 7.199219 11.398438 6.980469 11.578125 6.800781 11.800781 6.800781 12.019531 6.800781 12.199219 6.980469 12.199219 7.199219zM11 6C11 6.222656 10.820312 6.398438 10.601562 6.398438 10.378906 6.398438 10.199219 6.222656 10.199219 6 10.199219 5.777344 10.378906 5.601562 10.601562 5.601562 10.820312 5.601562 11 5.777344 11 6zM13.398438 6C13.398438 6.222656 13.222656 6.398438 13 6.398438 12.777344 6.398438 12.601562 6.222656 12.601562 6 12.601562 5.777344 12.777344 5.601562 13 5.601562 13.222656 5.601562 13.398438 5.777344 13.398438 6zM11 8.398438C11 8.621094 10.820312 8.800781 10.601562 8.800781 10.378906 8.800781 10.199219 8.621094 10.199219 8.398438 10.199219 8.179688 10.378906 8 10.601562 8 10.820312 8 11 8.179688 11 8.398438zM13.398438 8.398438C13.398438 8.621094 13.222656 8.800781 13 8.800781 12.777344 8.800781 12.601562 8.621094 12.601562 8.398438 12.601562 8.179688 12.777344 8 13 8 13.222656 8 13.398438 8.179688 13.398438 8.398438zM13.398438 8.398438"/>
    <path d="M 21.800781 8.800781 L 17.800781 8.800781 C 17.578125 8.800781 17.398438 8.980469 17.398438 9.199219 C 17.398438 9.421875 17.578125 9.601562 17.800781 9.601562 L 18.199219 9.601562 L 18.199219 11.199219 L 19.398438 11.199219 L 19.398438 12 C 19.398438 12.660156 18.863281 13.199219 18.199219 13.199219 C 18.191406 13.199219 18.1875 13.203125 18.179688 13.203125 C 18.082031 12.527344 17.503906 12 16.800781 12 L 13 12 L 13 11.601562 L 15.203125 11.601562 C 15.972656 11.601562 16.632812 11.050781 16.773438 10.292969 L 18.332031 1.890625 C 18.417969 1.421875 18.292969 0.941406 17.988281 0.578125 C 17.683594 0.210938 17.234375 0 16.757812 0 L 7.242188 0 C 6.765625 0 6.316406 0.210938 6.011719 0.578125 C 5.707031 0.941406 5.582031 1.421875 5.667969 1.890625 L 7.226562 10.292969 C 7.367188 11.050781 8.027344 11.601562 8.796875 11.601562 L 10.601562 11.601562 L 10.601562 12 L 6.800781 12 C 6.117188 12 5.550781 12.488281 5.425781 13.136719 C 4.949219 12.976562 4.601562 12.53125 4.601562 12 L 4.601562 11.199219 L 5.800781 11.199219 L 5.800781 9.601562 L 6.199219 9.601562 C 6.421875 9.601562 6.601562 9.421875 6.601562 9.199219 C 6.601562 8.980469 6.421875 8.800781 6.199219 8.800781 L 2.199219 8.800781 C 1.980469 8.800781 1.800781 8.980469 1.800781 9.199219 C 1.800781 9.421875 1.980469 9.601562 2.199219 9.601562 L 2.601562 9.601562 L 2.601562 11.199219 L 3.800781 11.199219 L 3.800781 12 C 3.800781 13.007812 4.554688 13.835938 5.523438 13.972656 C 5.746094 14.457031 6.230469 14.800781 6.800781 14.800781 L 10.199219 14.800781 L 10.199219 16 L 10.601562 16 L 10.601562 17.199219 L 11.398438 17.199219 L 11.398438 18 L 10.601562 18 L 10.601562 18.480469 L 5.710938 19.609375 C 5.699219 19.613281 5.691406 19.621094 5.679688 19.625 C 5.652344 19.632812 5.628906 19.644531 5.605469 19.65625 C 5.582031 19.671875 5.5625 19.683594 5.542969 19.699219 C 5.523438 19.714844 5.507812 19.734375 5.492188 19.753906 C 5.476562 19.773438 5.460938 19.792969 5.449219 19.816406 C 5.4375 19.839844 5.429688 19.863281 5.421875 19.886719 C 5.414062 19.914062 5.410156 19.9375 5.40625 19.964844 C 5.40625 19.976562 5.398438 19.988281 5.398438 20 L 5.398438 20.421875 C 4.503906 20.519531 3.800781 21.277344 3.800781 22.199219 C 3.800781 23.191406 4.609375 24 5.601562 24 C 6.59375 24 7.398438 23.191406 7.398438 22.199219 C 7.398438 21.417969 6.898438 20.757812 6.199219 20.511719 L 6.199219 20.316406 L 10.601562 19.304688 L 10.601562 19.433594 L 9.632812 20.402344 C 9.621094 20.402344 9.609375 20.398438 9.601562 20.398438 C 8.609375 20.398438 7.800781 21.207031 7.800781 22.199219 C 7.800781 23.191406 8.609375 24 9.601562 24 C 10.59375 24 11.398438 23.191406 11.398438 22.199219 C 11.398438 21.539062 11.039062 20.96875 10.511719 20.65625 L 11.164062 20 L 12.433594 20 L 13.089844 20.65625 C 12.558594 20.96875 12.199219 21.539062 12.199219 22.199219 C 12.199219 23.191406 13.007812 24 14 24 C 14.992188 24 15.800781 23.191406 15.800781 22.199219 C 15.800781 21.207031 14.992188 20.398438 14 20.398438 C 13.988281 20.398438 13.980469 20.402344 13.96875 20.402344 L 13 19.433594 L 13 19.304688 L 17.398438 20.316406 L 17.398438 20.511719 C 16.703125 20.757812 16.199219 21.417969 16.199219 22.199219 C 16.199219 23.191406 17.007812 24 18 24 C 18.992188 24 19.800781 23.191406 19.800781 22.199219 C 19.800781 21.277344 19.097656 20.519531 18.199219 20.421875 L 18.199219 20 C 18.199219 19.988281 18.195312 19.976562 18.191406 19.964844 C 18.191406 19.9375 18.183594 19.914062 18.175781 19.886719 C 18.171875 19.863281 18.164062 19.839844 18.152344 19.816406 C 18.140625 19.792969 18.125 19.773438 18.109375 19.753906 C 18.09375 19.734375 18.078125 19.714844 18.058594 19.699219 C 18.039062 19.683594 18.015625 19.671875 17.996094 19.65625 C 17.972656 19.644531 17.949219 19.632812 17.921875 19.625 C 17.910156 19.621094 17.902344 19.613281 17.890625 19.609375 L 13 18.480469 L 13 18 L 12.199219 18 L 12.199219 17.199219 L 13 17.199219 L 13 16 L 13.398438 16 L 13.398438 14.964844 L 14.71875 16.28125 C 14.753906 16.320312 14.796875 16.347656 14.847656 16.371094 C 14.894531 16.390625 14.949219 16.398438 15 16.398438 L 16.199219 16.398438 C 16.421875 16.398438 16.601562 16.222656 16.601562 16 C 16.601562 15.777344 16.421875 15.601562 16.199219 15.601562 L 15.164062 15.601562 L 14.367188 14.800781 L 16.800781 14.800781 C 17.367188 14.800781 17.855469 14.460938 18.074219 13.972656 C 18.113281 13.988281 18.15625 14 18.199219 14 C 19.304688 14 20.199219 13.101562 20.199219 12 L 20.199219 11.199219 L 21.398438 11.199219 L 21.398438 9.601562 L 21.800781 9.601562 C 22.019531 9.601562 22.199219 9.421875 22.199219 9.199219 C 22.199219 8.980469 22.019531 8.800781 21.800781 8.800781 Z M 3.398438 9.601562 L 5 9.601562 L 5 10.398438 L 3.398438 10.398438 Z M 6.601562 22.199219 C 6.601562 22.75 6.152344 23.199219 5.601562 23.199219 C 5.046875 23.199219 4.601562 22.75 4.601562 22.199219 C 4.601562 21.648438 5.046875 21.199219 5.601562 21.199219 C 6.152344 21.199219 6.601562 21.648438 6.601562 22.199219 Z M 9.601562 23.199219 C 9.046875 23.199219 8.601562 22.75 8.601562 22.199219 C 8.601562 21.648438 9.046875 21.199219 9.601562 21.199219 C 10.152344 21.199219 10.601562 21.648438 10.601562 22.199219 C 10.601562 22.75 10.152344 23.199219 9.601562 23.199219 Z M 15 22.199219 C 15 22.75 14.550781 23.199219 14 23.199219 C 13.449219 23.199219 13 22.75 13 22.199219 C 13 21.648438 13.449219 21.199219 14 21.199219 C 14.550781 21.199219 15 21.648438 15 22.199219 Z M 19 22.199219 C 19 22.75 18.550781 23.199219 18 23.199219 C 17.449219 23.199219 17 22.75 17 22.199219 C 17 21.648438 17.449219 21.199219 18 21.199219 C 18.550781 21.199219 19 21.648438 19 22.199219 Z M 11.398438 18.800781 L 12.199219 18.800781 L 12.199219 19.199219 L 11.398438 19.199219 Z M 8.796875 10.800781 C 8.414062 10.800781 8.082031 10.523438 8.011719 10.148438 L 6.457031 1.742188 C 6.414062 1.511719 6.476562 1.269531 6.625 1.089844 C 6.777344 0.90625 7.003906 0.800781 7.242188 0.800781 L 16.757812 0.800781 C 16.996094 0.800781 17.222656 0.90625 17.375 1.089844 C 17.523438 1.269531 17.589844 1.511719 17.542969 1.742188 L 15.988281 10.148438 C 15.917969 10.523438 15.589844 10.800781 15.203125 10.800781 Z M 11.398438 11.601562 L 12.199219 11.601562 L 12.199219 12 L 11.398438 12 Z M 12.601562 15.199219 L 11 15.199219 L 11 14.800781 L 12.601562 14.800781 Z M 12.199219 16.398438 L 11.398438 16.398438 L 11.398438 16 L 12.199219 16 Z M 16.800781 14 L 6.800781 14 C 6.46875 14 6.199219 13.730469 6.199219 13.398438 C 6.199219 13.070312 6.46875 12.800781 6.800781 12.800781 L 16.800781 12.800781 C 17.128906 12.800781 17.398438 13.070312 17.398438 13.398438 C 17.398438 13.730469 17.128906 14 16.800781 14 Z M 20.601562 10.398438 L 19 10.398438 L 19 9.601562 L 20.601562 9.601562 Z M 20.601562 10.398438"/>
</svg>

<svg xmlns="http://www.w3.org/2000/svg" width="32" height="32" viewBox="0 0 24 24">
    <path d="M11 3.602a.4.4 0 1 1-.8-.004.4.4 0 0 1 .8.004zm0 0M13.398 3.602a.398.398 0 1 1-.796 0 .398.398 0 1 1 .796 0zm0 0M12.2 4.8a.4.4 0 1 1-.801-.003.4.4 0 0 1 .8.004zm0 0M12.2 7.2a.401.401 0 1 1-.803.002.401.401 0 0 1 .802-.003zm0 0M11 6c0 .223-.18.398-.398.398a.398.398 0 1 1 0-.796c.218 0 .398.175.398.398zm0 0M13.398 6a.395.395 0 0 1-.398.398.395.395 0 0 1-.398-.398c0-.223.175-.398.398-.398.223 0 .398.175.398.398zm0 0M11 8.398a.401.401 0 1 1-.802.003.401.401 0 0 1 .802-.003zm0 0M13.398 8.398a.398.398 0 1 1-.796 0 .398.398 0 1 1 .796 0zm0 0"/>
    <path d="M21.8 8.8h-4a.401.401 0 1 0 0 .802h.4v1.597h1.198V12a1.2 1.2 0 0 1-1.199 1.2c-.008 0-.012.003-.02.003A1.4 1.4 0 0 0 16.802 12H13v-.398h2.203c.77 0 1.43-.551 1.57-1.309l1.559-8.402c.086-.47-.039-.95-.344-1.313A1.596 1.596 0 0 0 16.758 0H7.242c-.476 0-.926.21-1.23.578-.305.363-.43.844-.344 1.313l1.559 8.402c.14.758.8 1.309 1.57 1.309h1.805V12H6.8a1.4 1.4 0 0 0-1.375 1.137A1.202 1.202 0 0 1 4.602 12v-.8H5.8V9.601h.398a.401.401 0 0 0 0-.8l-4-.001a.4.4 0 0 0 0 .8h.403V11.2H3.8V12a2 2 0 0 0 1.722 1.973c.223.484.707.828 1.278.828h3.398V16h.403v1.2h.796v.8h-.796v.48L5.71 19.61c-.012.003-.02.011-.031.015a.423.423 0 0 0-.075.031c-.023.016-.043.028-.062.043a.337.337 0 0 0-.05.055.354.354 0 0 0-.044.062.553.553 0 0 0-.043.148c0 .013-.008.024-.008.036v.422a1.793 1.793 0 0 0-1.597 1.777c0 .992.808 1.801 1.8 1.801a1.8 1.8 0 0 0 1.797-1.8c0-.782-.5-1.442-1.199-1.688v-.196l4.403-1.011v.129l-.97.968c-.01 0-.023-.004-.03-.004-.993 0-1.801.809-1.801 1.801 0 .992.808 1.801 1.8 1.801a1.8 1.8 0 0 0 1.797-1.8c0-.66-.359-1.231-.886-1.544l.652-.656h1.27l.656.656c-.531.313-.89.883-.89 1.543 0 .992.808 1.801 1.8 1.801s1.8-.809 1.8-1.8c0-.993-.808-1.802-1.8-1.802-.012 0-.02.004-.031.004L13 19.434v-.13l4.398 1.012v.196A1.794 1.794 0 0 0 18 24c.992 0 1.8-.809 1.8-1.8 0-.923-.702-1.68-1.6-1.778V20c0-.012-.005-.023-.009-.035 0-.027-.007-.05-.015-.078a.248.248 0 0 0-.024-.07c-.011-.024-.027-.044-.043-.063-.015-.02-.03-.04-.05-.055-.02-.015-.043-.027-.063-.043-.023-.011-.047-.023-.074-.031-.012-.004-.02-.012-.031-.016L13 18.48V18h-.8v-.8h.8V16h.398v-1.035l1.32 1.316c.036.04.079.067.13.09.047.02.101.027.152.027h1.2a.398.398 0 1 0 0-.796h-1.036l-.797-.801h2.434c.566 0 1.054-.34 1.273-.828.04.015.082.027.125.027 1.106 0 2-.898 2-2v-.8h1.2V9.601h.402a.401.401 0 0 0 0-.801zm-18.402.802H5v.796H3.398zm3.204 12.597A1 1 0 1 1 4.6 22.2a1 1 0 0 1 2 0zm3 1A1 1 0 1 1 9.6 21.2a1 1 0 0 1 .002 2zm5.398-1c0 .551-.45 1-1 1s-1-.449-1-1c0-.55.45-1 1-1s1 .45 1 1zm4 0c0 .551-.45 1-1 1s-1-.449-1-1c0-.55.45-1 1-1s1 .45 1 1zm-7.602-3.398h.801v.398h-.8zm-2.601-8a.803.803 0 0 1-.785-.653L6.457 1.742a.801.801 0 0 1 .168-.652.802.802 0 0 1 .617-.29h9.516c.238 0 .465.106.617.29.148.18.215.422.168.652l-1.555 8.406a.8.8 0 0 1-.785.653zm2.601.8h.801V12h-.8zm1.204 3.598H11v-.398h1.602zm-.403 1.2h-.8V16h.8zM16.801 14h-10a.602.602 0 0 1-.602-.602c0-.328.27-.597.602-.597h10a.6.6 0 0 1 0 1.199zm3.8-3.602H19v-.796h1.602zm0 0"/>
</svg>
